!!!!SEGMENT: pl-sa--l-1643--037_anonim--nativitas-tua-dei-genitrix.krn
!!!cenid: 16xx:1392
!!!COM: Anonim
!!!COM-rismid: pe30004985
!!!CDT:
!!!CNT:
!!!OTL: Nativitas tua Dei genitrix
!!!PDT:
!!!AGN: Sacred
!!!SMS-siglum: PL-SA
!!!SMS-shelfmark: L 1643
!!!SMS-shelfwork: 037 W
!!!SMS-variant:
!!!SMS-altvar:
!!!NIFC-rismID: 1001064622
!!!URL-scan: http://repozytorium.nifc.pl/skany/pl-sa-nut--l1643
!!!ONB-nifc: UWAGA: 8 ksiąg. Primi chori: 1mus Cantus (64-65), C 2dus (64-65), C 3tius (63-64), Bassus (60-61); Secondi chori: Primus Cantus (61-62), C 2dus (62-63), Altus (62-63), Bassus (62-63). UWAGA: metrum 2/2 i 3/2. Nie dodawać pustych linii, chyba że w rękopisie pojawiają się dodatkowe oznaczenia dotyczące pełnej obsady (a 4, a 8 itp.)
!!!key:
**kern	**text	**text	**kern	**text	**text	**kern	**text	**text	**kern	**text	**text	**kern	**text	**text	**fb	**kern	**text	**text	**kern	**text	**text	**kern	**text	**text
*part8	*part8	*part8	*part7	*part7	*part7	*part6	*part6	*part6	*part5	*part5	*part5	*part4	*part4	*part4	*part4	*part3	*part3	*part3	*part2	*part2	*part2	*part1	*part1	*part1
*staff8	*staff8	*staff8	*staff7	*staff7	*staff7	*staff6	*staff6	*staff6	*staff5	*staff5	*staff5	*staff4	*staff4	*staff4	*	*staff3	*staff3	*staff3	*staff2	*staff2	*staff2	*staff1	*staff1	*staff1
*Iempty	*	*	*Iempty	*	*	*Iempty	*	*	*Iempty	*	*	*Iempty	*	*	*	*Iempty	*	*	*Iempty	*	*	*Iempty	*	*
*I"Baſsus 2di Chori.	*	*	*I"Altus secundi Chori.	*	*	*I"Cantus 2dus Secundi Chori.	*	*	*I"Primus Cantus 2di Chori	*	*	*I"Bassus Primi Chori.	*	*	*	*I"Cantus 3tius Primi Chori	*	*	*I"Cantus 2dus Primi Chori.	*	*	*I"Im(us) Cantus Primi Chori	*	*
*I'Coro 2 B	*	*	*I'Coro 2 A	*	*	*I'Coro 2 S 2	*	*	*I'Coro 2 S 1	*	*	*I'Coro 1 B	*	*	*	*I'Coro 1 S 3	*	*	*I'Coro 1 S 2	*	*	*I'Coro 1 S 1	*	*
*clefC3	*	*	*clefC2	*	*	*clefC1	*	*	*clefG2	*	*	*clefC3	*	*	*	*clefC2	*	*	*clefC1	*	*	*clefG2	*	*
*k[b-]	*	*	*k[b-]	*	*	*k[b-]	*	*	*k[b-]	*	*	*k[b-]	*	*	*	*k[b-]	*	*	*k[b-]	*	*	*k[b-]	*	*
*g:	*	*	*g:	*	*	*g:	*	*	*g:	*	*	*g:	*	*	*	*g:	*	*	*g:	*	*	*g:	*	*
*M2/1	*	*	*M2/1	*	*	*M2/1	*	*	*M2/1	*	*	*M2/1	*	*	*	*M2/1	*	*	*M2/1	*	*	*M2/1	*	*
*met(C|)	*	*	*met(C|)	*	*	*met(C|)	*	*	*met(C|)	*	*	*met(C|)	*	*	*	*met(C|)	*	*	*met(C|)	*	*	*met(C|)	*	*
=1	=1	=1	=1	=1	=1	=1	=1	=1	=1	=1	=1	=1	=1	=1	=1	=1	=1	=1	=1	=1	=1	=1	=1	=1
!	!	!	!	!	!	!	!	!	!	!	!	!	!	!	!	!	!	!	!LO:N:acc=#	!	!	!	!	!
!	!	!	!	!	!	!	!	!	!	!	!	!	!	!	!	!	!	!	!LO:TX:a:t=P:problem=# below	!	!	!	!	!
00r	.	.	00r	.	.	00r	.	.	00r	.	.	1g\	Na-	Vi-	.	1g\	Na-	Vi-	1bn\	Na-	Vi-	1dd\	Na-	Vi-
!	!	!	!	!	!	!	!	!	!	!	!	!	!	!	!	!	!	!	!LO:N:acc=#	!	!	!	!	!
!	!	!	!	!	!	!	!	!	!	!	!	!	!	!	!	!	!	!	!LO:TX:a:t=P:problem=# below	!	!	!	!	!
.	.	.	.	.	.	.	.	.	.	.	.	2.g\	-ti-	-ſi-	.	2.g\	-ti-	-ſi-	2.bn\	-ti-	-si-	2.dd\	-ti-	-ſi-
.	.	.	.	.	.	.	.	.	.	.	.	4g\	-vi-	-ta-	.	4g\	-vi-	-ta-	4b\	-vi-	-ta-	4dd\	-vi-	-ta-
=2-	=2-	=2-	=2-	=2-	=2-	=2-	=2-	=2-	=2-	=2-	=2-	=2-	=2-	=2-	=2-	=2-	=2-	=2-	=2-	=2-	=2-	=2-	=2-	=2-
.	.	.	.	.	.	.	.	.	.	.	.	1c\	-tas	-tio	.	2.g\	-tas	-ti-	1cc\	-tas	-tio	2.ee\	-tas	-ti-
.	.	.	.	.	.	.	.	.	.	.	.	.	.	.	.	4a\	.	-o	.	.	.	4ff\	.	-o
*	*	*	*	*	*	*	*	*	*	*	*	*	*	*	*	*	*	*	*	*	*	*lig	*	*
.	.	.	.	.	.	.	.	.	.	.	.	4G/	tu-	tu-	.	1b-\	tu-	tu-	0dd\	tu-	tu-	1gg\	tu-	tu-
.	.	.	.	.	.	.	.	.	.	.	.	4A/	.	.	.	.	.	.	.	.	.	.	.	.
.	.	.	.	.	.	.	.	.	.	.	.	4B-/	.	.	.	.	.	.	.	.	.	.	.	.
.	.	.	.	.	.	.	.	.	.	.	.	4c/	.	.	.	.	.	.	.	.	.	.	.	.
=3-	=3-	=3-	=3-	=3-	=3-	=3-	=3-	=3-	=3-	=3-	=3-	=3-	=3-	=3-	=3-	=3-	=3-	=3-	=3-	=3-	=3-	=3-	=3-	=3-
00r	.	.	00r	.	.	00r	.	.	00r	.	.	1d\	.	.	.	1.a\	-a	-a	.	.	.	1ff\	.	.
*	*	*	*	*	*	*	*	*	*	*	*	*	*	*	*	*	*	*	*	*	*	*Xlig	*	*
.	.	.	.	.	.	.	.	.	.	.	.	2A/	-a	-a	.	.	.	.	1cc\	-a	-a	1ee\	-a	-a
.	.	.	.	.	.	.	.	.	.	.	.	1a\	De-	.	.	2a\	De-	.	.	.	.	.	.	.
=4-	=4-	=4-	=4-	=4-	=4-	=4-	=4-	=4-	=4-	=4-	=4-	=4-	=4-	=4-	=4-	=4-	=4-	=4-	=4-	=4-	=4-	=4-	=4-	=4-
.	.	.	.	.	.	.	.	.	.	.	.	.	.	.	.	1.cc\	-i	.	2cc\	De-	.	2ee\	De-	.
.	.	.	.	.	.	.	.	.	.	.	.	2f\	-i	.	.	.	.	.	2a\	-i	.	2aa\	-i	.
.	.	.	.	.	.	.	.	.	.	.	.	2.g\	ge-	.	.	.	.	.	2.dd\	ge-	.	2.gg\	ge-	.
.	.	.	.	.	.	.	.	.	.	.	.	.	.	.	.	2b-\	ge-	.	.	.	.	.	.	.
.	.	.	.	.	.	.	.	.	.	.	.	4a\	-ni-	.	.	.	.	.	4dd\	-ni-	.	4gg\	-ni-	.
=5-	=5-	=5-	=5-	=5-	=5-	=5-	=5-	=5-	=5-	=5-	=5-	=5-	=5-	=5-	=5-	=5-	=5-	=5-	=5-	=5-	=5-	=5-	=5-	=5-
0r	.	.	0r	.	.	0r	.	.	0r	.	.	1c\	trix	.	.	2a\	-ni-	.	2.cc\	-trix	.	1ee-X\	-trix	.
.	.	.	.	.	.	.	.	.	.	.	.	.	.	.	.	2.g\	trix	.	.	.	.	.	.	.
.	.	.	.	.	.	.	.	.	.	.	.	.	.	.	.	.	.	.	4b-\	.	.	.	.	.
.	.	.	.	.	.	.	.	.	.	.	.	1d\	Vir-	.	.	.	.	.	4a\	.	.	1dd\	Vir-	.
.	.	.	.	.	.	.	.	.	.	.	.	.	.	.	.	8f\L	.	.	4g/	.	.	.	.	.
.	.	.	.	.	.	.	.	.	.	.	.	.	.	.	.	8e\J	.	.	.	.	.	.	.	.
!	!	!	!	!	!	!	!	!	!	!	!	!	!	!	!	!LO:TX:a:t=P:problem=# below	!	!	!	!	!	!	!	!
!	!	!	!	!	!	!	!	!	!	!	!	!	!	!	!	!LO:N:acc=#	!	!	!	!	!	!	!	!
.	.	.	.	.	.	.	.	.	.	.	.	.	.	.	.	2f#X\	Vir-	.	2a\	Vir-	.	.	.	.
=6-	=6-	=6-	=6-	=6-	=6-	=6-	=6-	=6-	=6-	=6-	=6-	=6-	=6-	=6-	=6-	=6-	=6-	=6-	=6-	=6-	=6-	=6-	=6-	=6-
!	!	!	!	!	!	!	!	!	!	!	!	!	!	!	!	!	!	!	!LO:N:acc=#	!	!	!	!	!
!	!	!	!	!	!	!	!	!	!	!	!	!	!	!	!	!	!	!	!LO:TX:a:t=P:problem=# below	!	!	!	!	!
2r	.	.	2r	.	.	2r	.	.	2r	.	.	1G/	-go	.	.	1g\	-go	.	1bn\	-go	.	1dd\	-go	.
!	!	!	!	!	!	!LO:N:acc=#	!	!	!	!	!	!	!	!	!	!	!	!	!	!	!	!	!	!
!	!	!	!	!	!	!LO:TX:a:t=P:problem=# below	!	!	!	!	!	!	!	!	!	!	!	!	!	!	!	!	!	!
2g\	Na-	Vi-	2g\	Na-	Vi-	2bn\	Na-	Vi-	2dd\	Na-	Vi-	.	.	.	.	.	.	.	.	.	.	.	.	.
!	!	!	!	!	!	!LO:N:acc=#	!	!	!	!	!	!	!	!	!	!	!	!	!	!	!	!	!	!
!	!	!	!	!	!	!LO:TX:a:t=P:problem=# below	!	!	!	!	!	!	!	!	!	!	!	!	!	!	!	!	!	!
2.g\	-ti-	-si-	2.g\	-ti-	-si-	2.bn\	-ti-	-si-	2.dd\	-ti-	-si-	00r	.	.	.	00r	.	.	00r	.	.	00r	.	.
4g\	-vi-	-ta-	4g\	-vi-	-ta-	4b\	-vi-	-ta-	4dd\	-vi-	-ta-	.	.	.	.	.	.	.	.	.	.	.	.	.
=7-	=7-	=7-	=7-	=7-	=7-	=7-	=7-	=7-	=7-	=7-	=7-	=7-	=7-	=7-	=7-	=7-	=7-	=7-	=7-	=7-	=7-	=7-	=7-	=7-
1c\	-tas	-tio	2.g\	-tas	-ti-	1cc\	-tas	-tio	1ee-X\	-tas	-tio	.	.	.	.	.	.	.	.	.	.	.	.	.
.	.	.	4a\	.	-o	.	.	.	.	.	.	.	.	.	.	.	.	.	.	.	.	.	.	.
4G/	tu-	tu-	1b-\	tu-	tu-	0dd\	tu-	tu-	1dd\	tu-	tu-	.	.	.	.	.	.	.	.	.	.	.	.	.
4A/	.	.	.	.	.	.	.	.	.	.	.	.	.	.	.	.	.	.	.	.	.	.	.	.
4B-/	.	.	.	.	.	.	.	.	.	.	.	.	.	.	.	.	.	.	.	.	.	.	.	.
4c/	.	.	.	.	.	.	.	.	.	.	.	.	.	.	.	.	.	.	.	.	.	.	.	.
=8-	=8-	=8-	=8-	=8-	=8-	=8-	=8-	=8-	=8-	=8-	=8-	=8-	=8-	=8-	=8-	=8-	=8-	=8-	=8-	=8-	=8-	=8-	=8-	=8-
1d\	.	.	1.a\	-a	-a	.	.	.	1dd\,<	-a	-a	.	.	.	.	.	.	.	.	.	.	.	.	.
2A/	-a	-a	.	.	.	1cc\,<	-a	-a	1.eeny\	De-	.	00r	.	.	.	00r	.	.	00r	.	.	00r	.	.
1a\	De-	.	2a\	De	.	.	.	.	.	.	.	.	.	.	.	.	.	.	.	.	.	.	.	.
=9-	=9-	=9-	=9-	=9-	=9-	=9-	=9-	=9-	=9-	=9-	=9-	=9-	=9-	=9-	=9-	=9-	=9-	=9-	=9-	=9-	=9-	=9-	=9-	=9-
.	.	.	1.cc\	-i	.	2cc\	De-	.	.	.	.	.	.	.	.	.	.	.	.	.	.	.	.	.
2f\	-i	.	.	.	.	2a\	-i	.	2ff\	-i	.	.	.	.	.	.	.	.	.	.	.	.	.	.
2.g\	ge-	.	.	.	.	2.dd\	ge-	.	2.dd\	ge-	.	.	.	.	.	.	.	.	.	.	.	.	.	.
.	.	.	2b-\	ge-	.	.	.	.	.	.	.	.	.	.	.	.	.	.	.	.	.	.	.	.
4g\	-ni-	.	.	.	.	4dd\	-ni-	.	4dd\	-ni-	.	.	.	.	.	.	.	.	.	.	.	.	.	.
=10-	=10-	=10-	=10-	=10-	=10-	=10-	=10-	=10-	=10-	=10-	=10-	=10-	=10-	=10-	=10-	=10-	=10-	=10-	=10-	=10-	=10-	=10-	=10-	=10-
1c\	-trix	.	2a\	-ni-	.	2.cc\	-trix	.	1ee-X\	-trix	.	.	.	.	.	.	.	.	.	.	.	.	.	.
.	.	.	2.g\	-trix	.	.	.	.	.	.	.	.	.	.	.	.	.	.	.	.	.	.	.	.
.	.	.	.	.	.	4b-y\	.	.	.	.	.	.	.	.	.	.	.	.	.	.	.	.	.	.
1d\	Vir-	.	.	.	.	1a\	Vir-	.	1dd\	Vir-	.	0r	.	.	.	0r	.	.	0r	.	.	0r	.	.
.	.	.	8f\L	.	.	.	.	.	.	.	.	.	.	.	.	.	.	.	.	.	.	.	.	.
.	.	.	8e\J	.	.	.	.	.	.	.	.	.	.	.	.	.	.	.	.	.	.	.	.	.
!	!	!	!LO:TX:a:t=P:problem=# below	!	!	!	!	!	!	!	!	!	!	!	!	!	!	!	!	!	!	!	!	!
.	.	.	2f#X\	Vir-	.	.	.	.	.	.	.	.	.	.	.	.	.	.	.	.	.	.	.	.
=11-	=11-	=11-	=11-	=11-	=11-	=11-	=11-	=11-	=11-	=11-	=11-	=11-	=11-	=11-	=11-	=11-	=11-	=11-	=11-	=11-	=11-	=11-	=11-	=11-
*custos:c	*	*	*	*	*	*	*	*	*custos:cc	*	*	*	*	*	*	*	*	*	*	*	*	*	*	*
!	!	!	!	!	!	!LO:N:acc=#	!	!	!	!	!	!	!	!	!	!	!	!	!	!	!	!	!	!
!	!	!	!	!	!	!LO:TX:a:t=P:problem=# below	!	!	!	!	!	!	!	!	!	!	!	!	!	!	!	!	!	!
1G/	-go.	.	1g\	-go	.	1bn\	-go	.	1dd\	-go	.	.	.	.	.	.	.	.	.	.	.	.	.	.
=12-	=12-	=12-	=12-	=12-	=12-	=12-	=12-	=12-	=12-	=12-	=12-	=12-	=12-	=12-	=12-	=12-	=12-	=12-	=12-	=12-	=12-	=12-	=12-	=12-
*M3/2	*	*	*M3/2	*	*	*M3/2	*	*	*M3/2	*	*	*M3/2	*	*	*	*M3/2	*	*	*M3/2	*	*	*M3/2	*	*
!LO:LB:g=original	!	!	!	!	!	!	!	!	!LO:LB:g=original	!	!	!	!	!	!	!	!	!	!	!	!	!	!	!
0.r	.	.	0.r	.	.	0.r	.	.	0.r	.	.	1.g\	gau-	.	.	1.b-\	gau-	.	1.dd\	Gau-	.	1.gg\	Gau-	.
.	.	.	.	.	.	.	.	.	.	.	.	2g\	-di-	.	.	2b-\	-di-	.	2dd\	-di-	.	2gg\	-di-	.
*	*	*	*	*	*	*	*	*	*	*	*	*custos:g	*	*	*	*custos:b	*	*	*custos:b	*	*	*custos:dd	*	*
.	.	.	.	.	.	.	.	.	.	.	.	1g\	-um	.	.	1b-\	-um	.	1dd\	-um	.	1gg\	-um	.
=13-	=13-	=13-	=13-	=13-	=13-	=13-	=13-	=13-	=13-	=13-	=13-	=13-	=13-	=13-	=13-	=13-	=13-	=13-	=13-	=13-	=13-	=13-	=13-	=13-
!	!	!	!	!	!	!	!	!	!	!	!	!	!	!	!	!LO:LB:g=original	!	!	!LO:LB:g=original	!	!	!LO:LB:g=original	!	!
1.c\	gau-	.	1.g\	gau-	.	1.cc\	gau-	.	1.cc\	gau-	.	00.r	.	.	.	00.r	.	.	00.r	.	.	00.r	.	.
*	*	*	*	*	*	*custos:g	*	*	*	*	*	*	*	*	*	*	*	*	*	*	*	*	*	*
2c/	-di-	.	2g\	-di-	.	2cc\	-di-	.	2cc\	-di-	.	.	.	.	.	.	.	.	.	.	.	.	.	.
*	*	*	*custos:d	*	*	*	*	*	*	*	*	*	*	*	*	*	*	*	*	*	*	*	*	*
!	!	!	!	!	!	!LO:LB:g=original	!	!	!	!	!	!	!	!	!	!	!	!	!	!	!	!	!	!
1c\	-um	.	1g\	-um	.	1g\	-um	.	1cc\	-um	.	.	.	.	.	.	.	.	.	.	.	.	.	.
=14-	=14-	=14-	=14-	=14-	=14-	=14-	=14-	=14-	=14-	=14-	=14-	=14-	=14-	=14-	=14-	=14-	=14-	=14-	=14-	=14-	=14-	=14-	=14-	=14-
!	!	!	!LO:LB:g=original	!	!	!	!	!	!	!	!	!	!	!	!	!	!	!	!	!	!	!	!	!
1B-/	an-	.	1d/	an-	.	1b-y\	an-	.	1dd\	an-	.	.	.	.	.	.	.	.	.	.	.	.	.	.
1e-X\	-nun-	.	1g\	-nun-	.	1b-\	-nun-	.	1ee-X\	-nun-	.	.	.	.	.	.	.	.	.	.	.	.	.	.
.	.	.	.	.	.	.	.	.	.	.	.	.	.	.	.	.	.	.	.	.	.	.	.	.
1c\	-ci-	.	1g\	-ci-	.	1cc\	-ci-	.	1ee-\	-ci-	.	.	.	.	.	.	.	.	.	.	.	.	.	.
=15-	=15-	=15-	=15-	=15-	=15-	=15-	=15-	=15-	=15-	=15-	=15-	=15-	=15-	=15-	=15-	=15-	=15-	=15-	=15-	=15-	=15-	=15-	=15-	=15-
!	!	!	!LO:TX:a:t=P:problem=# below	!	!	!	!	!	!	!	!	!	!	!	!	!	!	!	!	!	!	!	!	!
0d\	-a-	.	0f#X\	-a-	.	0a\	-a-	.	0dd\	-a-	.	0.r	.	.	.	0.r	.	.	0.r	.	.	0.r	.	.
.	.	.	.	.	.	.	.	.	.	.	.	.	.	.	.	.	.	.	.	.	.	.	.	.
!	!	!	!	!	!	!LO:TX:a:t=P:problem=# below	!	!	!	!	!	!	!	!	!	!	!	!	!	!	!	!	!	!
!	!	!	!	!	!	!LO:N:acc=#	!	!	!	!	!	!	!	!	!	!	!	!	!	!	!	!	!	!
1G/	-uit	.	1g\	-uit	.	1bn\	-uit	.	1dd\	-uit	.	.	.	.	.	.	.	.	.	.	.	.	.	.
=16-	=16-	=16-	=16-	=16-	=16-	=16-	=16-	=16-	=16-	=16-	=16-	=16-	=16-	=16-	=16-	=16-	=16-	=16-	=16-	=16-	=16-	=16-	=16-	=16-
00.r	.	.	00.r	.	.	00.r	.	.	00.r	.	.	1.g\	gau-	.	.	1.b-\	gau-	.	1.b-\	gau-	.	1.dd\	gau-	.
.	.	.	.	.	.	.	.	.	.	.	.	2g\	-di-	.	.	2b-\	-di-	.	2b-\	-di-	.	2dd\	-di-	.
.	.	.	.	.	.	.	.	.	.	.	.	1g\	-um	.	.	1g\	-um	.	1b-\	-um	.	1dd\	-um	.
=17-	=17-	=17-	=17-	=17-	=17-	=17-	=17-	=17-	=17-	=17-	=17-	=17-	=17-	=17-	=17-	=17-	=17-	=17-	=17-	=17-	=17-	=17-	=17-	=17-
.	.	.	.	.	.	.	.	.	.	.	.	1f\	an-	.	.	1a\	an-	.	1cc\	an-	.	1ff\	an-	.
.	.	.	.	.	.	.	.	.	.	.	.	1B-/	-nun-	.	.	1b-\	-nun-	.	1dd\	-nun-	.	1ff\	-nun-	.
.	.	.	.	.	.	.	.	.	.	.	.	.	.	.	.	.	.	.	.	.	.	.	.	.
.	.	.	.	.	.	.	.	.	.	.	.	1G/	-ci-	.	.	1b-\	-ci-	.	1dd\	-ci-	.	1gg\	-ci-	.
=18-	=18-	=18-	=18-	=18-	=18-	=18-	=18-	=18-	=18-	=18-	=18-	=18-	=18-	=18-	=18-	=18-	=18-	=18-	=18-	=18-	=18-	=18-	=18-	=18-
!	!	!	!	!	!	!	!	!	!	!	!	!	!	!	!	!	!	!	!LO:TX:a:t=P:problem=# below	!	!	!	!	!
0.r	.	.	0.r	.	.	0.r	.	.	0.r	.	.	0A/	-a-	.	.	0a\	-a-	.	0cc#X\	-a-	.	0eeny\	-a-	.
.	.	.	.	.	.	.	.	.	.	.	.	.	.	.	.	.	.	.	.	.	.	.	.	.
!	!	!	!	!	!	!	!	!	!	!	!	!	!	!	!	!	!	!	!	!	!	!LO:TX:a:t=P:problem=# below	!	!
.	.	.	.	.	.	.	.	.	.	.	.	1d\	-uit	.	.	1a\	-uit	.	1dd\	-uit	.	1ff#X\	-uit	.
=19-	=19-	=19-	=19-	=19-	=19-	=19-	=19-	=19-	=19-	=19-	=19-	=19-	=19-	=19-	=19-	=19-	=19-	=19-	=19-	=19-	=19-	=19-	=19-	=19-
1.B-/	gau-	.	1.fny\	gau-	.	1.b-y\	gau-	.	1.dd\	gau-	.	1.B-/	gau-	.	.	1.b-\	gau-	.	1.dd\	gau-	.	1.ffny\	gau-	.
2B-/	-di-	.	2f\	-di-	.	2b-\	-di-	.	2dd\	-di-	.	2B-/	-di-	.	.	2b-\	-di-	.	2dd\	-di-	.	2ff\	-di-	.
1B-/	-um	.	1f\	-um	.	1b-\	-um	.	1dd\	-um	.	1B-/	-um	.	.	1b-\	-um	.	1dd\	-um	.	1ff\	-um	.
=20-	=20-	=20-	=20-	=20-	=20-	=20-	=20-	=20-	=20-	=20-	=20-	=20-	=20-	=20-	=20-	=20-	=20-	=20-	=20-	=20-	=20-	=20-	=20-	=20-
1f\	an-	.	1f\	an-	.	1cc\	an-	.	1ff\	an-	.	1.F/	gau-	.	.	1.a\	gau-	.	1.ccny\	gau-	.	1.ff\	gau-	.
1f\	-nun-	.	1f\	-nun-	.	1cc\	-nun-	.	1ff\	-nun-	.	.	.	.	.	.	.	.	.	.	.	.	.	.
.	.	.	.	.	.	.	.	.	.	.	.	2F/	-di-	.	.	2a\	-di-	.	2cc\	-di-	.	2ff\	-di-	.
1f\	-ci-	.	1c/	-ci-	.	1cc\	-ci-	.	1ff\	-ci-	.	1F/	-um	.	.	1a\	-um	.	1cc\	-um	.	1ff\	-um	.
=21-	=21-	=21-	=21-	=21-	=21-	=21-	=21-	=21-	=21-	=21-	=21-	=21-	=21-	=21-	=21-	=21-	=21-	=21-	=21-	=21-	=21-	=21-	=21-	=21-
0c\	-a-	.	2c/	-a-	.	0cc\	-a-	.	0eeny\	-a-	.	1c\	an-	.	.	1g\	an-	.	1cc\	an-	.	1gg\	an-	.
.	.	.	2d/	.	.	.	.	.	.	.	.	.	.	.	.	.	.	.	.	.	.	.	.	.
.	.	.	2e/	.	.	.	.	.	.	.	.	1c\	-nun-	.	.	1g\	-nun-	.	1cc\	-nun-	.	1gg\	-nun-	.
.	.	.	2f\	.	.	.	.	.	.	.	.	.	.	.	.	.	.	.	.	.	.	.	.	.
1c\	-uit	.	1g\	-uit	.	1g\	-uit.	.	1ee\	-uit	.	1c\	-ci-	.	.	1g\	-ci-	.	1a\	-ci-	.	1gg\	-ci-	.
=22-	=22-	=22-	=22-	=22-	=22-	=22-	=22-	=22-	=22-	=22-	=22-	=22-	=22-	=22-	=22-	=22-	=22-	=22-	=22-	=22-	=22-	=22-	=22-	=22-
1.F/	gau-	.	1.a\	gau-	.	1.cc\	gau-	.	1.ff\	gau-	.	0f\	-a-	.	.	0a\	-a-	.	0cc\	-a-	.	0ff\	-a-	.
2F/	-di-	.	2a\	-di-	.	2cc\	-di-	.	2ff\	-di-	.	.	.	.	.	.	.	.	.	.	.	.	.	.
*custos:B	*	*	*	*	*	*	*	*	*custos:dd	*	*	*custos:B	*	*	*	*custos:b	*	*	*custos:dd	*	*	*custos:ff	*	*
1F/	-um	.	1f\	-um	.	1cc\	-um	.	1ff\	-um	.	1f\	-uit	.	.	1a\	-uit	.	1cc\	-uit	.	1ff\	-uit	.
=23-	=23-	=23-	=23-	=23-	=23-	=23-	=23-	=23-	=23-	=23-	=23-	=23-	=23-	=23-	=23-	=23-	=23-	=23-	=23-	=23-	=23-	=23-	=23-	=23-
!LO:LB:g=original	!	!	!	!	!	!	!	!	!LO:LB:g=original	!	!	!LO:LB:g=original	!	!	!	!LO:LB:g=original	!	!	!LO:LB:g=original	!	!	!LO:LB:g=original	!	!
1B-/	an-	.	1f\	an-	.	1b-\	an-	.	1dd\	an-	.	1.B-/	gau-	.	.	1.b-\	gau-	.	1.dd\	gau-	.	1.ff\	gau-	.
*	*	*	*	*	*	*custos:b	*	*	*	*	*	*	*	*	*	*	*	*	*	*	*	*	*	*
1B-/	-nun-	.	1f\	-nun-	.	1b-\	-nun-	.	1dd\	-nun-	.	.	.	.	.	.	.	.	.	.	.	.	.	.
.	.	.	.	.	.	.	.	.	.	.	.	2B-/	-di-	.	.	2b-\	-di-	.	2dd\	-di-	.	2ff\	-di-	.
*	*	*	*custos:f	*	*	*	*	*	*	*	*	*	*	*	*	*	*	*	*	*	*	*	*	*
!	!	!	!	!	!	!LO:LB:g=original	!	!	!	!	!	!	!	!	!	!	!	!	!	!	!	!	!	!
1B-/	-ci-	.	1f\	-ci-	.	1b-\	-ci-	.	1dd\	-ci-	.	1B-/	-um	.	.	1fny\	-um	.	1b-\	-um	.	1ff\	-um	.
=24-	=24-	=24-	=24-	=24-	=24-	=24-	=24-	=24-	=24-	=24-	=24-	=24-	=24-	=24-	=24-	=24-	=24-	=24-	=24-	=24-	=24-	=24-	=24-	=24-
!	!	!	!LO:LB:g=original	!	!	!	!	!	!	!	!	!	!	!	!	!	!	!	!	!	!	!	!	!
0f\	-a-	.	0f\	-a-	.	0a\	-a-	.	0cc\	-a-	.	1F/	an-	.	.	1a\	an-	.	1cc\	an-	.	1ff\	an-	.
.	.	.	.	.	.	.	.	.	.	.	.	1F/	-nun-	.	.	1a\	-nun-	.	1cc\	-nun-	.	1ff\	-nun-	.
.	.	.	.	.	.	.	.	.	.	.	.	.	.	.	.	.	.	.	.	.	.	.	.	.
1f\	-uit	.	1f\	-uit	.	1a\	-uit	.	1cc\	-uit	.	1F/	-ci-	.	.	1a\	-ci-	.	1cc\	-ci-	.	1ff\	-ci-	.
=25-	=25-	=25-	=25-	=25-	=25-	=25-	=25-	=25-	=25-	=25-	=25-	=25-	=25-	=25-	=25-	=25-	=25-	=25-	=25-	=25-	=25-	=25-	=25-	=25-
1c\	an-	.	1g\	an-	.	1cc\	an-	.	1cc\	an-	.	0c\	-a-	.	.	0g\	-a-	.	0cc\	-a-	.	0ee-X\	-a-	.
1c\	-nun-	.	1g\	-nun-	.	1cc\	-nun-	.	1cc\	-nun-	.	.	.	.	.	.	.	.	.	.	.	.	.	.
.	.	.	.	.	.	.	.	.	.	.	.	.	.	.	.	.	.	.	.	.	.	.	.	.
1c\	-ci-	.	1g\	-ci-	.	1g\	-ci-	.	1cc\	-ci-	.	0.G/	-uit	.	.	0.g\	-uit	.	0.b-\	-uit	.	0.dd\	-uit	.
=26-	=26-	=26-	=26-	=26-	=26-	=26-	=26-	=26-	=26-	=26-	=26-	=26-	=26-	=26-	=26-	=26-	=26-	=26-	=26-	=26-	=26-	=26-	=26-	=26-
0g\	-a-	.	0g\	-a-	.	0g\	-a-	.	0dd\	-a-	.	.	.	.	.	.	.	.	.	.	.	.	.	.
.	.	.	.	.	.	.	.	.	.	.	.	.	.	.	.	.	.	.	.	.	.	.	.	.
1g\	-uit	.	1g\	-uit	.	1b-\	-uit	.	1dd\	-uit	.	1ryy	.	.	.	1ryy	.	.	1ryy	.	.	1ryy	.	.
=27-	=27-	=27-	=27-	=27-	=27-	=27-	=27-	=27-	=27-	=27-	=27-	=27-	=27-	=27-	=27-	=27-	=27-	=27-	=27-	=27-	=27-	=27-	=27-	=27-
*M2/1	*	*	*M2/1	*	*	*M2/1	*	*	*M2/1	*	*	*M2/1	*	*	*	*M2/1	*	*	*M2/1	*	*	*M2/1	*	*
*met(C|)	*	*	*met(C|)	*	*	*met(C|)	*	*	*met(C|)	*	*	*met(C|)	*	*	*	*met(C|)	*	*	*met(C|)	*	*	*met(C|)	*	*
2.c/	U-	.	2.g\	U-	.	2.g/	U-	.	2.ee-X\	U-	.	2.c/	U-	.	.	2.g\	U-	.	2.cc\	U-	.	2.gg\	U-	.
4c/	-ni-	.	4g\	-ni-	.	4g/	-ni-	.	4ee-\	-ni-	.	4c/	-ni-	.	.	4g\	-ni-	.	4cc\	-ni-	.	4gg\	-ni-	.
2c/	-uer-	.	2.g\	-uer-	.	2cc\	-uer-	.	2ee-\	-uer-	.	2c/	-uer-	.	.	2g\	-uer-	.	2cc\	-uer-	.	2gg\	-uer-	.
2g\	-so	.	.	.	.	2b-\	-so	.	2dd\	-so	.	2G/	-so	.	.	2g\	-so	.	1dd\	-so	.	2.gg\	-so	.
.	.	.	4d/	-so	.	.	.	.	.	.	.	.	.	.	.	.	.	.	.	.	.	.	.	.
=28-	=28-	=28-	=28-	=28-	=28-	=28-	=28-	=28-	=28-	=28-	=28-	=28-	=28-	=28-	=28-	=28-	=28-	=28-	=28-	=28-	=28-	=28-	=28-	=28-
1d\	mun-	.	1.d/	mun-	.	2a\	mun-	.	1dd\	mun-	.	1d\	mun-	.	.	1a\	mun-	.	.	.	.	.	.	.
.	.	.	.	.	.	.	.	.	.	.	.	.	.	.	.	.	.	.	.	.	.	8ff\L	.	.
.	.	.	.	.	.	.	.	.	.	.	.	.	.	.	.	.	.	.	.	.	.	8eeny\J	.	.
!	!	!	!	!	!	!	!	!	!	!	!	!	!	!	!	!	!	!	!	!	!	!LO:TX:a:t=P:problem=# below	!	!
.	.	.	.	.	.	2dd\	.	.	.	.	.	.	.	.	.	.	.	.	2a\	mun-	.	2ff#X\	mun-	.
!	!	!	!	!	!	!	!	!	!	!	!	!	!	!	!	!	!	!	!LO:N:acc=#	!	!	!	!	!
!	!	!	!	!	!	!	!	!	!	!	!	!	!	!	!	!	!	!	!LO:TX:a:t=P:problem=# below	!	!	!	!	!
1g\	do	.	.	.	.	1dd\	-do	.	1dd\	-do	.	1G/	-do	.	.	1g\,<	-do	.	1bn\	-do	.	1gg\	-do	.
.	.	.	2g,<\	-do	.	.	.	.	.	.	.	.	.	.	.	.	.	.	.	.	.	.	.	.
=29-	=29-	=29-	=29-	=29-	=29-	=29-	=29-	=29-	=29-	=29-	=29-	=29-	=29-	=29-	=29-	=29-	=29-	=29-	=29-	=29-	=29-	=29-	=29-	=29-
2.c/	U-	.	2.g\	U-	.	2.cc\	U-	.	2.eeny\	U-	.	2.c/	U-	.	.	2.g\	U-	.	2.cc\	U-	.	2.gg\	U-	.
4c/	-ni-	.	4g\	-ni-	.	4cc\	-ni-	.	4ee\	-ni-	.	4c/	-ni-	.	.	4g\	-ni-	.	4cc\	-ni-	.	4gg\	-ni-	.
2c/	-uer-	.	2g\	-uer-	.	2cc\	-uer-	.	2ee\	-uer-	.	2c/	-uer-	.	.	2g\	-uer-	.	2cc\	-uer-	.	2gg\	-uer-	.
2c/	-so	.	2g\	-so	.	2cc\	-so	.	2ee\	-so	.	2c/	-so	.	.	2g\	-so	.	1cc\	-so	.	2gg\	-so	.
=30-	=30-	=30-	=30-	=30-	=30-	=30-	=30-	=30-	=30-	=30-	=30-	=30-	=30-	=30-	=30-	=30-	=30-	=30-	=30-	=30-	=30-	=30-	=30-	=30-
1g\	mun-	.	2d/	mun-	.	1dd\	mun-	.	1dd\	mun-	.	1G/	mun-	.	.	1g\	mun-	.	.	.	.	1gg\	mun-	.
*	*	*	*	*	*	*	*	*	*	*	*	*	*	*	*	*	*	*	*custos:dd	*	*	*	*	*
!	!	!	!	!	!	!	!	!	!	!	!	!	!	!	!	!	!	!	!LO:TX:a:t=P:problem=# below	!	!	!	!	!
!	!	!	!	!	!	!	!	!	!	!	!	!	!	!	!	!	!	!	!LO:N:acc=#	!	!	!	!	!
.	.	.	2g\	.	.	.	.	.	.	.	.	.	.	.	.	.	.	.	2bn\	mun-	.	.	.	.
*custos:c	*	*	*custos:g	*	*	*custos:cc	*	*	*custos:ee	*	*	*custos:c	*	*	*	*custos:g	*	*	*	*	*	*custos:dd	*	*
!	!	!	!	!	!	!	!	!	!	!	!	!	!	!	!	!	!	!	!LO:LB:g=original	!	!	!	!	!
1c\	-do	.	1g\	-do	.	1cc\	-do	.	1ee\	-do	.	1c\	-do	.	.	1g\	-do	.	1cc\	-do	.	1gg\	-do	.
=31-	=31-	=31-	=31-	=31-	=31-	=31-	=31-	=31-	=31-	=31-	=31-	=31-	=31-	=31-	=31-	=31-	=31-	=31-	=31-	=31-	=31-	=31-	=31-	=31-
!LO:LB:g=original	!	!	!LO:LB:g=original	!	!	!LO:PB:g=original	!	!	!LO:LB:g=original	!	!	!LO:LB:g=original	!	!	!	!LO:LB:g=original	!	!	!	!	!	!LO:LB:g=original	!	!
2c/	ex	.	2g\	ex	.	2cc\	ex	.	2ee\	ex	.	2c/	ex	.	.	2g\	ex	.	2cc\	ex	.	0r	.	.
2c/	te	.	2g\	te	.	2cc\	te	.	2ee\	te	.	2c/	te	.	.	2g\	te	.	2cc\	te	.	.	.	.
1f\	e-	.	1f\	e-	.	1a\	e-	.	1ff\	e-	.	4F/	e-	.	.	1a\	e-	.	2a\	e-	.	.	.	.
.	.	.	.	.	.	.	.	.	.	.	.	4G/	.	.	.	.	.	.	.	.	.	.	.	.
.	.	.	.	.	.	.	.	.	.	.	.	4A/	.	.	.	.	.	.	2cc\	.	.	.	.	.
.	.	.	.	.	.	.	.	.	.	.	.	4B-/	.	.	.	.	.	.	.	.	.	.	.	.
=32-	=32-	=32-	=32-	=32-	=32-	=32-	=32-	=32-	=32-	=32-	=32-	=32-	=32-	=32-	=32-	=32-	=32-	=32-	=32-	=32-	=32-	=32-	=32-	=32-
2c/	-nim	.	2g\	-nim	.	2cc\	-nim	.	2ee\	-nim	.	2c/	-nim	.	.	2g\	-nim	.	2cc\	-nim	.	2r	.	.
2r	.	.	2r	.	.	2r	.	.	2r	.	.	2r	.	.	.	2r	.	.	2r	.	.	4dd\	or-	.
.	.	.	.	.	.	.	.	.	.	.	.	.	.	.	.	.	.	.	.	.	.	4dd\	-tus	.
0r	.	.	0r	.	.	0r	.	.	0r	.	.	0r	.	.	.	0r	.	.	0r	.	.	1dd\	est	.
=33-	=33-	=33-	=33-	=33-	=33-	=33-	=33-	=33-	=33-	=33-	=33-	=33-	=33-	=33-	=33-	=33-	=33-	=33-	=33-	=33-	=33-	=33-	=33-	=33-
.	.	.	.	.	.	.	.	.	.	.	.	.	.	.	.	.	.	.	.	.	.	2cc\	sol	.
.	.	.	.	.	.	.	.	.	.	.	.	.	.	.	.	.	.	.	.	.	.	2b-/	ius-	.
1r	.	.	1r	.	.	1r	.	.	1r	.	.	1r	.	.	.	1r	.	.	1r	.	.	2.a/	-ti-	.
.	.	.	.	.	.	.	.	.	.	.	.	.	.	.	.	.	.	.	.	.	.	4a/	-ti-	.
=34-	=34-	=34-	=34-	=34-	=34-	=34-	=34-	=34-	=34-	=34-	=34-	=34-	=34-	=34-	=34-	=34-	=34-	=34-	=34-	=34-	=34-	=34-	=34-	=34-
2r	.	.	2r	.	.	2r	.	.	2r	.	.	2r	.	.	.	2r	.	.	2r	.	.	2g/	-ae	.
4F/	ex	.	4f\	ex	.	4a\	ex	.	4ff\	ex	.	4f\	ex	.	.	4a\	ex	.	4cc\	ex	.	2r	.	.
4F/	te	.	4f\	te	.	4a\	te	.	4ff\	te	.	4f\	te	.	.	4a\	te	.	4cc\	te	.	.	.	.
1B-/	e-	.	1d/	e-	.	1b-\	e-	.	1ff\	e-	.	4B-/	e-	.	.	1f\	e-	.	1dd\	e-	.	1r	.	.
.	.	.	.	.	.	.	.	.	.	.	.	4c/	.	.	.	.	.	.	.	.	.	.	.	.
.	.	.	.	.	.	.	.	.	.	.	.	4d\	.	.	.	.	.	.	.	.	.	.	.	.
.	.	.	.	.	.	.	.	.	.	.	.	4e\	.	.	.	.	.	.	.	.	.	.	.	.
=35-	=35-	=35-	=35-	=35-	=35-	=35-	=35-	=35-	=35-	=35-	=35-	=35-	=35-	=35-	=35-	=35-	=35-	=35-	=35-	=35-	=35-	=35-	=35-	=35-
2F/	-nim	.	2f\	-nim	.	2a\	-nim	.	2ff\	-nim	.	2f\	-nim	.	.	2f\	-nim	.	2cc\	-nim	.	2r	.	.
2r	.	.	2r	.	.	2r	.	.	2r	.	.	2r	.	.	.	2r	.	.	2r	.	.	4ffny\	or-	.
.	.	.	.	.	.	.	.	.	.	.	.	.	.	.	.	.	.	.	.	.	.	4ff\	-tus	.
0r	.	.	0r	.	.	0r	.	.	0r	.	.	0r	.	.	.	0r	.	.	0r	.	.	1ff\	est	.
=36-	=36-	=36-	=36-	=36-	=36-	=36-	=36-	=36-	=36-	=36-	=36-	=36-	=36-	=36-	=36-	=36-	=36-	=36-	=36-	=36-	=36-	=36-	=36-	=36-
.	.	.	.	.	.	.	.	.	.	.	.	.	.	.	.	.	.	.	.	.	.	2ee-X\	sol	.
.	.	.	.	.	.	.	.	.	.	.	.	.	.	.	.	.	.	.	.	.	.	2dd\	ius-	.
1r	.	.	1r	.	.	1r	.	.	1r	.	.	1r	.	.	.	1r	.	.	1r	.	.	2.cc\	-ti-	.
.	.	.	.	.	.	.	.	.	.	.	.	.	.	.	.	.	.	.	.	.	.	4cc\	-ti-	.
=37-	=37-	=37-	=37-	=37-	=37-	=37-	=37-	=37-	=37-	=37-	=37-	=37-	=37-	=37-	=37-	=37-	=37-	=37-	=37-	=37-	=37-	=37-	=37-	=37-
2r	.	.	2r	.	.	2r	.	.	2r	.	.	2r	.	.	.	2r	.	.	2r	.	.	2b-/	-ae	.
4B-/	Chris-	.	1f\	Chris-	.	1b-\	Chris-	.	1dd\	Chris-	.	1B-/	Chris-	.	.	1f\	Chris-	.	1b-y\	Chris-	.	2.dd\	Chris-	.
4c/	.	.	.	.	.	.	.	.	.	.	.	.	.	.	.	.	.	.	.	.	.	.	.	.
4d\	.	.	.	.	.	.	.	.	.	.	.	.	.	.	.	.	.	.	.	.	.	.	.	.
4eny\	.	.	.	.	.	.	.	.	.	.	.	.	.	.	.	.	.	.	.	.	.	4eeny\	.	.
2f\	-tus	.	2c/	-tus	.	2a\	.	.	2cc\	-tus	.	8F/L	-tus	.	.	2f\	-tus	.	2cc\	-tus	.	2ff\	-tus	.
.	.	.	.	.	.	.	.	.	.	.	.	8G/	.	.	.	.	.	.	.	.	.	.	.	.
.	.	.	.	.	.	.	.	.	.	.	.	8A/	.	.	.	.	.	.	.	.	.	.	.	.
.	.	.	.	.	.	.	.	.	.	.	.	8B-/J	.	.	.	.	.	.	.	.	.	.	.	.
=38-	=38-	=38-	=38-	=38-	=38-	=38-	=38-	=38-	=38-	=38-	=38-	=38-	=38-	=38-	=38-	=38-	=38-	=38-	=38-	=38-	=38-	=38-	=38-	=38-
2c/	De-	.	1g\	De-	.	4g/	-tus	.	2ee-X\	De-	.	2c/	De-	.	.	2g\	De-	.	2cc\	De-	.	2gg\	De-	.
.	.	.	.	.	.	4a\	.	.	.	.	.	.	.	.	.	.	.	.	.	.	.	.	.	.
2g\	-us	.	.	.	.	2b-\	De-	.	2dd\	-us	.	2G/	-us	.	.	2g\	-us	.	2dd\	-us	.	2.gg\	-us	.
1d\	no-	.	2g\	-us	.	2a\	-us	.	1dd\	no-	.	1d\	no-	.	.	1a\	no-	.	1dd\	no-	.	.	.	.
.	.	.	.	.	.	.	.	.	.	.	.	.	.	.	.	.	.	.	.	.	.	8ff\L	.	.
.	.	.	.	.	.	.	.	.	.	.	.	.	.	.	.	.	.	.	.	.	.	8ee\J	.	.
*	*	*	*	*	*	*	*	*	*	*	*	*	*	*	*	*	*	*	*	*	*	*custos:gg	*	*
.	.	.	2d/	no-	.	2dd\	no-	.	.	.	.	.	.	.	.	.	.	.	.	.	.	2ff#X\	no-	.
=39-	=39-	=39-	=39-	=39-	=39-	=39-	=39-	=39-	=39-	=39-	=39-	=39-	=39-	=39-	=39-	=39-	=39-	=39-	=39-	=39-	=39-	=39-	=39-	=39-
*	*	*	*	*	*	*	*	*	*	*	*	*custos:d	*	*	*	*	*	*	*	*	*	*	*	*
!	!	!	!	!	!	!	!	!	!	!	!	!	!	!	!	!	!	!	!LO:N:acc=#	!	!	!LO:LB:g=original	!	!
!	!	!	!	!	!	!	!	!	!	!	!	!	!	!	!	!	!	!	!LO:TX:a:t=P:problem=# below	!	!	!	!	!
2g,<\	-ster	.	2d,</	-ster.	.	2dd,<\	-ster.	.	2dd,<\	-ster	.	1G/	-ster	.	.	1g\	-ster	.	1bn\	-ster	.	1gg\	-ster	.
2g\	qui	.	2g\	qui	.	2b-\	qui	.	2dd\	qui	.	.	.	.	.	.	.	.	.	.	.	.	.	.
!	!	!	!	!	!	!	!	!	!	!	!	!LO:LB:g=original	!	!	!	!	!	!	!	!	!	!	!	!
2g\	ſol-	.	2g\	ſol-	.	2b-\	ſol-	.	2dd\	ſol-	.	2r	.	.	.	2r	.	.	2r	.	.	2r	.	.
*	*	*	*	*	*	*custos:b	*	*	*	*	*	*	*	*	*	*	*	*	*	*	*	*	*	*
!	!	!	!LO:TX:a:t=P:problem=# below	!	!	!	!	!	!	!	!	!	!	!	!	!	!	!	!	!	!	!	!	!
2d\	-uens	.	2f#X\	-uens	.	2a\	-uens	.	2dd\	-uens	.	4r	.	.	.	4r	.	.	4r	.	.	4r	.	.
!	!	!	!	!	!	!	!	!	!	!	!	!	!	!	!	!	!	!	!	!	!	!LO:TX:a:t=P:problem=# below	!	!
.	.	.	.	.	.	.	.	.	.	.	.	4d\	qui	.	.	4a\	qui	.	4dd\	qui	.	4ff#X\	qui	.
=40-	=40-	=40-	=40-	=40-	=40-	=40-	=40-	=40-	=40-	=40-	=40-	=40-	=40-	=40-	=40-	=40-	=40-	=40-	=40-	=40-	=40-	=40-	=40-	=40-
!	!	!	!	!	!	!LO:LB:g=original	!	!	!	!	!	!	!	!	!	!	!	!	!	!	!	!	!	!
2r	.	.	2r	.	.	2r	.	.	2r	.	.	2g\	ſol-	.	.	2b-\	ſol-	.	2dd\	ſol-	.	2gg\	sol-	.
*	*	*	*	*	*	*	*	*	*	*	*	*	*	*	*	*	*	*	*custos:dd	*	*	*	*	*
!	!	!	!	!	!	!	!	!	!	!	!	!	!	!	!	!	!	!	!	!	!	!LO:TX:a:t=P:problem=# below	!	!
4r	.	.	4r	.	.	4r	.	.	4r	.	.	2d\	-uens	.	.	2a\	-uens	.	2dd\	-uens	.	2ff#X\	-uens	.
*custos:g	*	*	*	*	*	*	*	*	*custos:dd	*	*	*	*	*	*	*	*	*	*	*	*	*	*	*
!	!	!	!LO:TX:a:t=P:problem=# below	!	!	!	!	!	!	!	!	!	!	!	!	!	!	!	!	!	!	!	!	!
4d\	qui	.	4f#X\	qui	.	4a\	qui	.	4dd\	qui	.	.	.	.	.	.	.	.	.	.	.	.	.	.
!LO:PB:g=original	!	!	!	!	!	!	!	!	!LO:PB:g=original	!	!	!	!	!	!	!	!	!	!LO:LB:g=original	!	!	!	!	!
2g\	sol-	.	2g\	sol-	.	2b-\	sol-	.	2dd\	sol-	.	2r	.	.	.	2r	.	.	2r	.	.	2r	.	.
*	*	*	*custos:g	*	*	*	*	*	*	*	*	*	*	*	*	*	*	*	*	*	*	*	*	*
!	!	!	!LO:TX:a:t=P:problem=# below	!	!	!	!	!	!	!	!	!	!	!	!	!	!	!	!	!	!	!	!	!
2d\	-uens	.	2f#X\	-uens	.	2a\	-uens	.	2dd\	-uens	.	4r	.	.	.	4r	.	.	4r	.	.	4r	.	.
*	*	*	*	*	*	*	*	*	*	*	*	*	*	*	*	*custos:b	*	*	*	*	*	*	*	*
!	!	!	!	!	!	!	!	!	!	!	!	!	!	!	!	!	!	!	!	!	!	!LO:TX:a:t=P:problem=# below	!	!
.	.	.	.	.	.	.	.	.	.	.	.	4d\	qui	.	.	4a\	qui	.	4dd\	qui	.	4ff#X\	qui	.
=41-	=41-	=41-	=41-	=41-	=41-	=41-	=41-	=41-	=41-	=41-	=41-	=41-	=41-	=41-	=41-	=41-	=41-	=41-	=41-	=41-	=41-	=41-	=41-	=41-
!	!	!	!LO:PB:g=original	!	!	!	!	!	!	!	!	!	!	!	!	!LO:LB:g=original	!	!	!	!	!	!	!	!
4r	.	.	4r	.	.	4r	.	.	4r	.	.	2g\	sol-	.	.	2b-\	sol-	.	2dd\	sol-	.	2gg\	sol-	.
8g\L	ma-	.	8g\L	ma-	.	8b-\L	ma-	.	8dd\L	ma-	.	.	.	.	.	.	.	.	.	.	.	.	.	.
8g\J	-le-	.	8g\J	-le-	.	8b-\J	-le-	.	8dd\J	-le-	.	.	.	.	.	.	.	.	.	.	.	.	.	.
!LO:TX:a:t=P:problem=# below	!	!	!	!	!	!	!	!	!	!	!	!	!	!	!	!	!	!	!	!	!	!LO:TX:a:t=P:problem=# below	!	!
4f#X\	-dic-	.	4a\	-dic-	.	4a\	-dic-	.	4dd\	-dic-	.	2d\	-uens	.	.	2a\	-uens	.	2dd\	-uens	.	2ff#X\	-uens	.
4f#\	-ti-	.	4a\	-ti-	.	4a\	-ti-	.	4dd\	-ti-	.	.	.	.	.	.	.	.	.	.	.	.	.	.
2g\	-o-	.	2g\	-o-	.	2b-\	-o-	.	2dd\	-o-	.	4r	.	.	.	4r	.	.	4r	.	.	4r	.	.
.	.	.	.	.	.	.	.	.	.	.	.	8g\L	ma-	.	.	8b-\L	ma-	.	8dd\L	ma-	.	8gg\L	ma-	.
.	.	.	.	.	.	.	.	.	.	.	.	8g\J	-le-	.	.	8b-\J	-le-	.	8dd\J	-le-	.	8gg\J	-le-	.
!	!	!	!LO:TX:a:t=P:problem=# below	!	!	!	!	!	!	!	!	!	!	!	!	!	!	!	!	!	!	!	!	!
2d\	-nem	.	2f#X\	-nem	.	2a\	-nem	.	2dd\	-nem	.	4f\	-dic-	.	.	4a\	-dic-	.	4dd\	-dic-	.	4aa\	-dic-	.
!	!	!	!	!	!	!	!	!	!	!	!	!LO:TX:a:t=P:problem=# below	!	!	!	!	!	!	!	!	!	!	!	!
.	.	.	.	.	.	.	.	.	.	.	.	4f#X\	-ti-	.	.	4a\	-ti-	.	4dd\	-ti-	.	4aa\	-ti-	.
=42-	=42-	=42-	=42-	=42-	=42-	=42-	=42-	=42-	=42-	=42-	=42-	=42-	=42-	=42-	=42-	=42-	=42-	=42-	=42-	=42-	=42-	=42-	=42-	=42-
!	!	!	!	!	!	!	!	!	!LO:TX:t=P:problem=brakuje pauzy 0r	!	!	!	!	!	!	!	!	!	!	!	!	!	!	!
4r	.	.	4r	.	.	4r	.	.	0ryy	.	.	2g\	-o-	.	.	2b-\	-o-	.	2dd\	-o-	.	2gg\	-o-	.
8g\L	ma-	.	8g\L	ma-	.	8dd\L	ma-	.	.	.	.	.	.	.	.	.	.	.	.	.	.	.	.	.
8g\J	-le-	.	8g\J	-le-	.	8dd\J	-le-	.	.	.	.	.	.	.	.	.	.	.	.	.	.	.	.	.
!LO:TX:a:t=P:problem=# below	!	!	!	!	!	!	!	!	!	!	!	!	!	!	!	!	!	!	!	!	!	!LO:TX:a:t=P:problem=# below	!	!
4f#X\	-dic-	.	4a\	-dic-	.	4a\	-dic-	.	.	.	.	2d\	-nem	.	.	2a\	-nem	.	2dd\	-nem	.	2ff#X\	-nem	.
4f#\	-ti-	.	4a\	-ti-	.	4a\	-ti-	.	.	.	.	.	.	.	.	.	.	.	.	.	.	.	.	.
2g\	-o-	.	2g\	-o-	.	2b-\	-o-	.	.	.	.	4r	.	.	.	4r	.	.	4r	.	.	4r	.	.
.	.	.	.	.	.	.	.	.	.	.	.	8g\L	ma-	.	.	8b-\L	ma-	.	8dd\L	ma-	.	8gg\L	ma-	.
.	.	.	.	.	.	.	.	.	.	.	.	8g\J	-le-	.	.	8b-\J	-le-	.	8dd\J	-le-	.	8gg\J	-le-	.
2d\	-nem	.	2f#\	-nem	.	2a\	-nem	.	.	.	.	4f#y\	-dic-	.	.	4a\	-dic-	.	4dd\	-dic-	.	4aa\	-dic-	.
!	!	!	!	!	!	!	!	!	!	!	!	!LO:TX:a:t=P:problem=# below	!	!	!	!	!	!	!	!	!	!	!	!
.	.	.	.	.	.	.	.	.	.	.	.	4f#X\	-ti-	.	.	4a\	-ti-	.	4dd\	-ti-	.	4aa\	-ti-	.
=43-	=43-	=43-	=43-	=43-	=43-	=43-	=43-	=43-	=43-	=43-	=43-	=43-	=43-	=43-	=43-	=43-	=43-	=43-	=43-	=43-	=43-	=43-	=43-	=43-
2r	.	.	2r	.	.	2r	.	.	2r	.	.	2g\	-o-	.	.	2b-\	-o-	.	2dd\	-o-	.	2gg\	-o-	.
!	!	!	!	!	!	!	!	!	!	!	!	!	!	!	!	!	!	!	!	!	!	!LO:TX:a:t=P:problem=# below	!	!
4r	.	.	4r	.	.	4r	.	.	4r	.	.	4d\	-nem	.	.	4a\	-nem	.	4dd\	-nem	.	4ff#X\	-nem	.
8g\L	ma-	.	8d/L	ma-	.	8b-\L	ma-	.	8dd\L	ma-	.	8G/L	ma-	.	.	8g\L	ma-	.	8b-y\L	ma-	.	8gg\L	ma-	.
*	*	*	*	*	*	*	*	*	*	*	*	*custos:d	*	*	*	*	*	*	*	*	*	*custos:ff	*	*
8g\J	-le-	.	8d/J	-le-	.	8b-\J	-le-	.	8dd\J	-le-	.	8G/J	-le	.	.	8g\J	-le	.	8b-\J	-le	.	8gg\J	-le	.
!	!	!	!	!	!	!	!	!	!	!	!	!LO:LB:g=original	!	!	!	!	!	!	!	!	!	!LO:LB:g=original	!	!
4d\	-dic-	.	4d/	-dic-	.	4a\	-dic-	.	4dd\	-dic-	.	4d\	-dic-	.	.	4a\	-dic-	.	4dd\	-dic-	.	4ffny\	-dic-	.
4d\	-ti-	.	4a\	-ti-	.	4a\	-ti-	.	4dd\	-ti-	.	4d\	-ti-	.	.	4a\	-ti-	.	4dd\	-ti-	.	4ff\	-ti-	.
!	!	!	!	!	!	!	!	!	!	!	!	!	!	!	!	!	!	!	!LO:N:acc=#	!	!	!	!	!
!	!	!	!	!	!	!	!	!	!	!	!	!	!	!	!	!	!	!	!LO:TX:a:t=P:problem=# below	!	!	!	!	!
2a\	-o-	.	2a\	-o-	.	2a\	-o-	.	8eeny\L	-o-	.	2A/	-o-	.	.	2a\	-o-	.	2cc#X\	-o-	.	2ee\	-o-	.
.	.	.	.	.	.	.	.	.	8dd\	.	.	.	.	.	.	.	.	.	.	.	.	.	.	.
.	.	.	.	.	.	.	.	.	8ee\	.	.	.	.	.	.	.	.	.	.	.	.	.	.	.
!	!	!	!	!	!	!	!	!	!LO:TX:a:t=P:problem=# below	!	!	!	!	!	!	!	!	!	!	!	!	!	!	!
.	.	.	.	.	.	.	.	.	8cc#X\J	.	.	.	.	.	.	.	.	.	.	.	.	.	.	.
=44-	=44-	=44-	=44-	=44-	=44-	=44-	=44-	=44-	=44-	=44-	=44-	=44-	=44-	=44-	=44-	=44-	=44-	=44-	=44-	=44-	=44-	=44-	=44-	=44-
*	*	*	*	*	*	*custos:a	*	*	*	*	*	*	*	*	*	*	*	*	*	*	*	*	*	*
!	!	!	!	!	!	!	!	!	!	!	!	!	!	!	!	!	!	!	!	!	!	!LO:TX:a:t=P:problem=# below	!	!
2d\	-nem	.	2a\	-nem	.	2a\	-nem	.	2dd,<\	-nem	.	2d\	-nem	.	.	2a\	-nem	.	2dd\	-nem	.	2ff#X\	-nem	.
2d\	de-	.	2a\	de-	.	2a\	de-	.	2dd\	de-	.	2r	.	.	.	2r	.	.	2r	.	.	2r	.	.
*	*	*	*	*	*	*	*	*	*	*	*	*	*	*	*	*	*	*	*custos:dd	*	*	*	*	*
!	!	!	!	!	!	!LO:LB:g=original	!	!	!	!	!	!	!	!	!	!	!	!	!	!	!	!	!	!
2g\	-dit	.	2g\	-dit	.	2b-\	-dit	.	2dd\	-dit	.	00r	.	.	.	00r	.	.	00r	.	.	00r	.	.
1e-X\	be-	.	1g\	be-	.	2.b-\	be-	.	1gg\	be-	.	.	.	.	.	.	.	.	.	.	.	.	.	.
=45-	=45-	=45-	=45-	=45-	=45-	=45-	=45-	=45-	=45-	=45-	=45-	=45-	=45-	=45-	=45-	=45-	=45-	=45-	=45-	=45-	=45-	=45-	=45-	=45-
.	.	.	.	.	.	.	.	.	.	.	.	.	.	.	.	.	.	.	.	.	.	.	.	.
.	.	.	.	.	.	4cc\	-ne-	.	.	.	.	.	.	.	.	.	.	.	.	.	.	.	.	.
*custos:e	*	*	*custos:g	*	*	*	*	*	*	*	*	*	*	*	*	*	*	*	*	*	*	*	*	*
2d\	-ne-	.	2a\	-ne-	.	2dd\	-di-	.	2ff\	-ne-	.	.	.	.	.	.	.	.	.	.	.	.	.	.
!LO:LB:g=original	!	!	!LO:LB:g=original	!	!	!	!	!	!	!	!	!	!	!	!	!	!	!	!	!	!	!	!	!
2.e-X\	di-	.	2.g\	di-	.	2.b-\	.	.	2.gg\	-di-	.	.	.	.	.	.	.	.	.	.	.	.	.	.
4d\	-cti-	.	4a\	-cti-	.	4b-\	-cti-	.	4ff\	-cti-	.	.	.	.	.	.	.	.	.	.	.	.	.	.
=46-	=46-	=46-	=46-	=46-	=46-	=46-	=46-	=46-	=46-	=46-	=46-	=46-	=46-	=46-	=46-	=46-	=46-	=46-	=46-	=46-	=46-	=46-	=46-	=46-
!	!	!	!	!	!	!	!	!	!	!	!	!	!	!	!	!	!	!	!	!	!	!	!	!
1c\	-o-	.	2.g\	-o-	.	1cc\	-o-	.	1ee-X\	-o-	.	.	.	.	.	.	.	.	.	.	.	.	.	.
.	.	.	4a\	.	.	.	.	.	.	.	.	.	.	.	.	.	.	.	.	.	.	.	.	.
!	!	!	!	!	!	!	!	!	!	!	!	!	!	!	!	!	!	!	!LO:LB:g=original	!	!	!	!	!
2B-/	-nem	.	2b-\	-nem	.	2dd\	-nem	.	2dd\	-nem	.	2r	.	.	.	2r	.	.	2r	.	.	2r	.	.
*	*	*	*	*	*	*	*	*	*custos:dd	*	*	*	*	*	*	*	*	*	*	*	*	*	*	*
2r	.	.	2r	.	.	2r	.	.	2r	.	.	2B-/	de-	.	.	2b-\	de-	.	2dd\	de-	.	2ffny\	de-	.
=47-	=47-	=47-	=47-	=47-	=47-	=47-	=47-	=47-	=47-	=47-	=47-	=47-	=47-	=47-	=47-	=47-	=47-	=47-	=47-	=47-	=47-	=47-	=47-	=47-
!	!	!	!	!	!	!	!	!	!LO:LB:g=original	!	!	!	!	!	!	!	!	!	!	!	!	!	!	!
00r	.	.	00r	.	.	00r	.	.	00r	.	.	2fny\	-dit	.	.	2a\	-dit	.	2ccny\	-dit	.	2ff\	-dit	.
*	*	*	*	*	*	*	*	*	*	*	*	*	*	*	*	*custos:a	*	*	*	*	*	*	*	*
.	.	.	.	.	.	.	.	.	.	.	.	1g\	be-	.	.	1g\	be-	.	1b-\	be-	.	1dd\	be-	.
!	!	!	!	!	!	!	!	!	!	!	!	!	!	!	!	!	!	!	!	!	!	!	!	!
.	.	.	.	.	.	.	.	.	.	.	.	.	.	.	.	.	.	.	.	.	.	.	.	.
!	!	!	!	!	!	!	!	!	!	!	!	!LO:TX:a:t=P:problem=# below	!	!	!LO:LB:g=original	!	!	!	!	!	!	!	!	!
.	.	.	.	.	.	.	.	.	.	.	.	2f#X\	-ne-	.	.	2a\	-ne-	.	2a\	-ne-	.	2dd\	-ne-	.
=48-	=48-	=48-	=48-	=48-	=48-	=48-	=48-	=48-	=48-	=48-	=48-	=48-	=48-	=48-	=48-	=48-	=48-	=48-	=48-	=48-	=48-	=48-	=48-	=48-
.	.	.	.	.	.	.	.	.	.	.	.	2.g\	-di-	.	.	2.g\	-di-	.	2b-\	-di-	.	1.gg\	-di-	.
.	.	.	.	.	.	.	.	.	.	.	.	.	.	.	.	.	.	.	4cc\	.	.	.	.	.
.	.	.	.	.	.	.	.	.	.	.	.	4fny\	.	.	.	4a\	.	.	4dd\	.	.	.	.	.
.	.	.	.	.	.	.	.	.	.	.	.	1e-X\	-cti-	.	.	2b-\	-cti-	.	2.ee-X\	-cti-	.	.	.	.
.	.	.	.	.	.	.	.	.	.	.	.	.	.	.	.	1b-\	-o-	.	.	.	.	2gg\	-cti-	.
.	.	.	.	.	.	.	.	.	.	.	.	.	.	.	.	.	.	.	4dd\	.	.	.	.	.
=49-	=49-	=49-	=49-	=49-	=49-	=49-	=49-	=49-	=49-	=49-	=49-	=49-	=49-	=49-	=49-	=49-	=49-	=49-	=49-	=49-	=49-	=49-	=49-	=49-
1r	.	.	1r	.	.	1r	.	.	1r	.	.	1f\	o-	.	.	.	.	.	4cc\	.	.	1ff\	-o-	.
.	.	.	.	.	.	.	.	.	.	.	.	.	.	.	.	.	.	.	4b-\	.	.	.	.	.
!	!	!	!	!	!	!	!	!	!	!	!	!	!	!	!	!	!	!	!	!	!	!	!	!
.	.	.	.	.	.	.	.	.	.	.	.	.	.	.	.	2a\	.	.	2cc\	-o-	.	.	.	.
4r	.	.	4r	.	.	4r	.	.	4r	.	.	2B-/	-nem	.	.	2b-\	-nem	.	2dd\	-nem	.	2ff\	-nem	.
8B-/L	et	.	8b-\L	et	.	8dd\L	et	.	8dd\L	et	.	.	.	.	.	.	.	.	.	.	.	.	.	.
8B-/J	con-	.	8b-\J	con-	.	8dd\J	con-	.	8dd\J	con-	.	.	.	.	.	.	.	.	.	.	.	.	.	.
4c/	-fun-	.	4g\	-fun-	.	4cc\	-fun-	.	4een\	-fun-	.	2r	.	.	.	2r	.	.	2r	.	.	2r	.	.
4c/	-dens	.	4g\	-dens	.	4cc\	-dens	.	4ee\	-dens	.	.	.	.	.	.	.	.	.	.	.	.	.	.
=50-	=50-	=50-	=50-	=50-	=50-	=50-	=50-	=50-	=50-	=50-	=50-	=50-	=50-	=50-	=50-	=50-	=50-	=50-	=50-	=50-	=50-	=50-	=50-	=50-
!	!	!	!	!	!	!LO:TX:a:t=P:problem=# below	!	!	!	!	!	!	!	!	!	!	!	!	!	!	!	!	!	!
!	!	!	!	!	!	!LO:N:acc=#	!	!	!	!	!	!	!	!	!	!	!	!	!	!	!	!	!	!
2G/	mor-	.	2g\	mor-	.	2bn\	mor-	.	2dd\	mor-	.	4r	.	.	.	4r	.	.	4r	.	.	4r	.	.
.	.	.	.	.	.	.	.	.	.	.	.	8g\L	et	.	.	8b-\L	et	.	8dd\L	et	.	8gg\L	et	.
.	.	.	.	.	.	.	.	.	.	.	.	8g\J	con-	.	.	8b-\J	con-	.	8dd\J	con-	.	8gg\J	con-	.
2c/	-tem	.	2g\	-tem	.	2cc\	-tem	.	2ee\	-tem	.	4c/	-fun-	.	.	4cc\	-fun-	.	4cc\	-fun-	.	4ee\	-fun-	.
.	.	.	.	.	.	.	.	.	.	.	.	4c/	-dens	.	.	4g\	-dens	.	4cc\	-dens	.	4ee\	-dens	.
!	!	!	!	!	!	!	!	!	!	!	!	!	!	!	!	!	!	!	!LO:N:acc=#	!	!	!	!	!
!	!	!	!	!	!	!	!	!	!	!	!	!	!	!	!	!	!	!	!LO:TX:a:t=P:problem=# below	!	!	!	!	!
4r	.	.	4r	.	.	4r	.	.	4r	.	.	2G/	mor-	.	.	2g\	mor-	.	2bn\	mor-	.	2dd\	mor-	.
!	!	!	!LO:SIC:v:s=8bn\L	!	!	!	!	!	!	!	!	!	!	!	!	!	!	!	!	!	!	!	!	!
8g\L	et	.	8b-\L	et	.	8b\L	et	.	8dd\L	et	.	.	.	.	.	.	.	.	.	.	.	.	.	.
!	!	!	!	!	!	!LO:TX:a:t=P:problem=# above	!	!	!	!	!	!	!	!	!	!	!	!	!	!	!	!	!	!
!	!	!	!LO:SIC:v:s=8b\J	!	!	!	!	!	!	!	!	!	!	!	!	!	!	!	!	!	!	!	!	!
8g\J	con-	.	8b-\J	con-	.	8bnX\J	con-	.	8dd\J	con-	.	.	.	.	.	.	.	.	.	.	.	.	.	.
4c/	-fun-	.	4g\	-fun-	.	4cc\	-fun-	.	4ee\	-fun-	.	2c/	-tem	.	.	2g\	-tem	.	2cc\	-tem	.	2ee\	-tem	.
4c/	-dens	.	4g\	-dens	.	4cc\	-dens	.	4ee\	-dens	.	.	.	.	.	.	.	.	.	.	.	.	.	.
=51-	=51-	=51-	=51-	=51-	=51-	=51-	=51-	=51-	=51-	=51-	=51-	=51-	=51-	=51-	=51-	=51-	=51-	=51-	=51-	=51-	=51-	=51-	=51-	=51-
!	!	!	!	!	!	!LO:TX:a:t=P:problem=# below	!	!	!	!	!	!	!	!	!	!	!	!	!	!	!	!	!	!
!	!	!	!	!	!	!LO:N:acc=#	!	!	!	!	!	!	!	!	!	!	!	!	!	!	!	!	!	!
2G/	mor-	.	2g\	mor-	.	2bn\	mor-	.	2dd\	mor-	.	4r	.	.	.	4r	.	.	4r	.	.	4r	.	.
.	.	.	.	.	.	.	.	.	.	.	.	8g\L	et	.	.	8b-\L	et	.	8dd\L	et	.	8gg\L	et	.
*	*	*	*	*	*	*	*	*	*	*	*	*custos:c	*	*	*	*	*	*	*custos:cc	*	*	*custos:gg	*	*
.	.	.	.	.	.	.	.	.	.	.	.	8g\J	con-	.	.	8b-\J	con-	.	8dd\J	con-	.	8gg\J	con-	.
!	!	!	!	!	!	!	!	!	!	!	!	!LO:PB:g=original	!	!	!	!	!	!	!LO:PB:g=original	!	!	!LO:PB:g=original	!	!
4c/	-tem	.	4g,<\	-tem	.	4cc,<\	-tem	.	4ee,<\	-tem	.	4c/	-fun-	.	.	4cc\	-fun-	.	4cc\	-fun-	.	4gg\	-fun-	.
8c/L	et	.	8g\L	et	.	8cc\L	et	.	8ee\L	et	.	4c/	-dens	.	.	4g\	-dens	.	4cc\	-dens	.	2gg\	-dens	.
*	*	*	*	*	*	*custos:dd	*	*	*	*	*	*	*	*	*	*	*	*	*	*	*	*	*	*
8c/J	con-	.	8g\J	con-	.	8cc\J	con-	.	8ee\J	con-	.	.	.	.	.	.	.	.	.	.	.	.	.	.
!	!	!	!	!	!	!LO:LB:g=original	!	!	!	!	!	!	!	!	!	!	!	!	!	!	!	!	!	!
4g\	-fun-	.	4g\	-fun-	.	4dd\	-fun-	.	4dd\	-fun-	.	8G/L	mor-	.	.	2g\	mor-	.	2b-y\	mor-	.	.	.	.
.	.	.	.	.	.	.	.	.	.	.	.	8A/	.	.	.	.	.	.	.	.	.	.	.	.
4g\	-dens	.	4d/	-dens	.	4b-y\	-dens	.	4dd\	-dens	.	8B-/	.	.	.	.	.	.	.	.	.	8ff\L	.	.
.	.	.	.	.	.	.	.	.	.	.	.	8c/J	.	.	.	.	.	.	.	.	.	8ee\J	.	.
!	!	!	!	!	!	!	!	!	!	!	!	!	!	!	!	!	!	!	!	!	!	!LO:TX:a:t=P:problem=# below	!	!
2d\	mor-	.	2d/	mor-	.	2dd\	mor-	.	2dd\	mor	.	2d\	.	.	.	2a\	.	.	2a\	.	.	2ff#X\	mor-	.
=52-	=52-	=52-	=52-	=52-	=52-	=52-	=52-	=52-	=52-	=52-	=52-	=52-	=52-	=52-	=52-	=52-	=52-	=52-	=52-	=52-	=52-	=52-	=52-	=52-
*M3/2	*	*	*M3/2	*	*	*M3/2	*	*	*M3/2	*	*	*M3/2	*	*	*	*M3/2	*	*	*M3/2	*	*	*M3/2	*	*
0g\	-tem	.	0d/	-tem	.	0dd\	-tem	.	0dd\	-tem	.	0G/	-tem	.	.	0g\	-tem	.	0b-\	-tem	.	0gg\	-tem	.
!	!	!	!	!	!	!	!	!	!	!	!	!	!	!	!	!	!	!	!	!	!	!	!	!
.	.	.	.	.	.	.	.	.	.	.	.	.	.	.	.	.	.	.	.	.	.	.	.	.
*custos:dd	*	*	*custos:a	*	*	*	*	*	*	*	*	*	*	*	*	*custos:f	*	*	*	*	*	*	*	*
1r	.	.	1r	.	.	1r	.	.	1r	.	.	1G/	do-	.	.	1g\	do-	.	1b-\	do-	.	1dd\	do-	.
=53-	=53-	=53-	=53-	=53-	=53-	=53-	=53-	=53-	=53-	=53-	=53-	=53-	=53-	=53-	=53-	=53-	=53-	=53-	=53-	=53-	=53-	=53-	=53-	=53-
!LO:LB:g=original	!	!	!LO:LB:g=original	!	!	!	!	!	!	!	!	!	!	!	!	!LO:PB:g=original	!	!	!	!	!	!	!	!
00.r	.	.	00.r	.	.	00.r	.	.	00.r	.	.	0B-/	-na-	.	.	1.f\	-na-	.	0b-\	-na-	.	0dd\	-na-	.
.	.	.	.	.	.	.	.	.	.	.	.	.	.	.	.	2g\	.	.	.	.	.	.	.	.
.	.	.	.	.	.	.	.	.	.	.	.	1A/	-uit	.	.	1a\	-uit	.	1cc\	-uit	.	1ee\	-uit	.
=54-	=54-	=54-	=54-	=54-	=54-	=54-	=54-	=54-	=54-	=54-	=54-	=54-	=54-	=54-	=54-	=54-	=54-	=54-	=54-	=54-	=54-	=54-	=54-	=54-
.	.	.	.	.	.	.	.	.	.	.	.	0F/	no-	.	.	0a\	no-	.	0cc\	no-	.	0ffny\	no-	.
.	.	.	.	.	.	.	.	.	.	.	.	.	.	.	.	.	.	.	.	.	.	.	.	.
.	.	.	.	.	.	.	.	.	.	.	.	1G/	-bis	.	.	1g\	-bis	.	1b-\	-bis	.	1dd\	-bis	.
=55-	=55-	=55-	=55-	=55-	=55-	=55-	=55-	=55-	=55-	=55-	=55-	=55-	=55-	=55-	=55-	=55-	=55-	=55-	=55-	=55-	=55-	=55-	=55-	=55-
00.r	.	.	00.r	.	.	00.r	.	.	00.r	.	.	0d\	vi-	.	.	0a\	vi-	.	0dd\	vi-	.	0ff\	vi-	.
.	.	.	.	.	.	.	.	.	.	.	.	.	.	.	.	.	.	.	.	.	.	.	.	.
.	.	.	.	.	.	.	.	.	.	.	.	1d\	-tam	.	.	1a\	-tam	.	1dd\	-tam	.	1ff\	-tam	.
=56-	=56-	=56-	=56-	=56-	=56-	=56-	=56-	=56-	=56-	=56-	=56-	=56-	=56-	=56-	=56-	=56-	=56-	=56-	=56-	=56-	=56-	=56-	=56-	=56-
!	!	!	!	!	!	!	!	!	!	!	!	!	!	!	!	!	!	!	!LO:TX:a:t=P:problem=# below	!	!	!	!	!
.	.	.	.	.	.	.	.	.	.	.	.	1.A/	sem-	.	.	1.a\	sem-	.	1.cc#X\	sem-	.	1.ee\	sem-	.
.	.	.	.	.	.	.	.	.	.	.	.	2B-/	-pi-	.	.	2g\	-pi-	.	2dd\	-pi-	.	2dd\	-pi-	.
!	!	!	!	!	!	!	!	!	!	!	!	!	!	!	!	!	!	!	!LO:TX:a:t=P:problem=# below	!	!	!	!	!
.	.	.	.	.	.	.	.	.	.	.	.	1A/	-ter-	.	.	1a\	-ter-	.	1cc#X\	-ter-	.	1ee\	-ter-	.
=57-	=57-	=57-	=57-	=57-	=57-	=57-	=57-	=57-	=57-	=57-	=57-	=57-	=57-	=57-	=57-	=57-	=57-	=57-	=57-	=57-	=57-	=57-	=57-	=57-
1r	.	.	1r	.	.	1r	.	.	1r	.	.	0d\	-nam	.	.	0f\	-nam	.	0dd\	-nam	.	0dd\	-nam	.
1r	.	.	1r	.	.	1r	.	.	1r	.	.	.	.	.	.	.	.	.	.	.	.	.	.	.
*	*	*	*	*	*	*	*	*	*custos:dd	*	*	*	*	*	*	*	*	*	*	*	*	*	*	*
1d\	do-	.	1a\	do-	.	1dd\	do-	.	1dd\	do-	.	1r	.	.	.	1r	.	.	1r	.	.	1r	.	.
=58-	=58-	=58-	=58-	=58-	=58-	=58-	=58-	=58-	=58-	=58-	=58-	=58-	=58-	=58-	=58-	=58-	=58-	=58-	=58-	=58-	=58-	=58-	=58-	=58-
!	!	!	!	!	!	!	!	!	!LO:LB:g=original	!	!	!	!	!	!	!	!	!	!	!	!	!	!	!
0g\	-na-	.	0b-\	-na-	.	0b-\	-na-	.	1.dd\	-na-	.	00.r	.	.	.	00.r	.	.	00.r	.	.	00.r	.	.
.	.	.	.	.	.	.	.	.	2ee\	.	.	.	.	.	.	.	.	.	.	.	.	.	.	.
1fny\	-uit	.	1a\	-uit	.	1cc\	-uit	.	1ff\	-uit	.	.	.	.	.	.	.	.	.	.	.	.	.	.
=59-	=59-	=59-	=59-	=59-	=59-	=59-	=59-	=59-	=59-	=59-	=59-	=59-	=59-	=59-	=59-	=59-	=59-	=59-	=59-	=59-	=59-	=59-	=59-	=59-
0c\	no-	.	0g\	no-	.	0cc\	no-	.	0ee-X\	no-	.	.	.	.	.	.	.	.	.	.	.	.	.	.
.	.	.	.	.	.	.	.	.	.	.	.	.	.	.	.	.	.	.	.	.	.	.	.	.
!	!	!	!LO:TX:a:t=P:problem=# below	!	!	!	!	!	!	!	!	!	!	!	!	!	!	!	!	!	!	!	!	!
1d\	-bis	.	1f#X\	-bis	.	1a\	-bis	.	1dd\	-bis	.	.	.	.	.	.	.	.	.	.	.	.	.	.
=60-	=60-	=60-	=60-	=60-	=60-	=60-	=60-	=60-	=60-	=60-	=60-	=60-	=60-	=60-	=60-	=60-	=60-	=60-	=60-	=60-	=60-	=60-	=60-	=60-
0G/	vi-	.	0g\	vi-	.	0b-\	vi-	.	0dd\	vi-	.	00.r	.	.	.	00.r	.	.	00.r	.	.	00.r	.	.
.	.	.	.	.	.	.	.	.	.	.	.	.	.	.	.	.	.	.	.	.	.	.	.	.
1G/	-tam	.	1g\	-tam	.	1b-\	-tam	.	1dd\	-tam	.	.	.	.	.	.	.	.	.	.	.	.	.	.
=61-	=61-	=61-	=61-	=61-	=61-	=61-	=61-	=61-	=61-	=61-	=61-	=61-	=61-	=61-	=61-	=61-	=61-	=61-	=61-	=61-	=61-	=61-	=61-	=61-
!	!	!	!LO:TX:a:t=P:problem=# below	!	!	!	!	!	!	!	!	!	!	!	!	!	!	!	!	!	!	!	!	!
0d\	Sem-	.	0f#X\	Sem-	.	0a\	Sem-	.	0dd\	Sem-	.	.	.	.	.	.	.	.	.	.	.	.	.	.
.	.	.	.	.	.	.	.	.	.	.	.	.	.	.	.	.	.	.	.	.	.	.	.	.
1e-X\	-pi-	.	1g\	-pi-	.	1g\	-pi-	.	1ccny\	-pi-	.	.	.	.	.	.	.	.	.	.	.	.	.	.
=62-	=62-	=62-	=62-	=62-	=62-	=62-	=62-	=62-	=62-	=62-	=62-	=62-	=62-	=62-	=62-	=62-	=62-	=62-	=62-	=62-	=62-	=62-	=62-	=62-
!	!	!	!LO:TX:a:t=P:problem=# below	!	!	!	!	!	!	!	!	!	!	!	!	!	!	!	!	!	!	!LO:TX:a:t=P:problem=# below	!	!
0d\	-ter-	.	0f#X\	-ter-	.	0a\	-ter-	.	0dd\	-ter-	.	1d\	do-	.	.	1a\	do-	.	1dd\	do-	.	1ff#X\	do-	.
!	!	!	!	!	!	!	!	!	!	!	!	!	!	!	!	!	!	!	!	!	!	!LO:TX:a:t=P:problem=# below	!	!
.	.	.	.	.	.	.	.	.	.	.	.	1d\	-na-	.	.	1a\	-na-	.	1dd\	-na-	.	1ff#X\	-na-	.
.	.	.	.	.	.	.	.	.	.	.	.	.	.	.	.	.	.	.	.	.	.	.	.	.
*	*	*	*	*	*	*	*	*	*	*	*	*	*	*	*	*	*	*	*custos:dd	*	*	*	*	*
*	*	*	*	*	*	*	*	*	*	*	*	*	*	*	*	*	*	*	*	*	*	*custos:gg	*	*
!	!	!	!LO:TX:a:t=P:problem=# below	!	!	!	!	!	!	!	!	!	!	!	!	!	!	!	!	!	!	!LO:TX:a:t=P:problem=# below	!	!
1d\,<	-nam	.	1f#X\,<	-nam	.	1a\,<	-nam	.	1dd\,<	-nam	.	1d\	-uit	.	.	1a\	-uit	.	1dd\	-uit	.	1ff#X\	-uit	.
=63-	=63-	=63-	=63-	=63-	=63-	=63-	=63-	=63-	=63-	=63-	=63-	=63-	=63-	=63-	=63-	=63-	=63-	=63-	=63-	=63-	=63-	=63-	=63-	=63-
!	!	!	!	!	!	!LO:TX:a:t=P:problem=# below	!	!	!	!	!	!	!	!	!	!	!	!	!	!	!	!	!	!
!	!	!	!	!	!	!LO:N:acc=#	!	!	!	!	!	!	!	!	!	!	!	!	!LO:LB:g=original	!	!	!LO:LB:g=original	!	!
1G/	do-	.	1g\	do-	.	1bn\	do-	.	1dd\	do-	.	0g\	no-	.	.	0g\	no-	.	0dd\	no-	.	0gg\	no-	.
!	!	!	!	!	!	!LO:TX:a:t=P:problem=# below	!	!	!	!	!	!	!	!	!	!	!	!	!	!	!	!	!	!
!	!	!	!	!	!	!LO:N:acc=#	!	!	!	!	!	!	!	!	!	!	!	!	!	!	!	!	!	!
1G/	-na-	.	1g\	-na-	.	1bn\	-na-	.	1dd\	-na-	.	.	.	.	.	.	.	.	.	.	.	.	.	.
.	.	.	.	.	.	.	.	.	.	.	.	.	.	.	.	.	.	.	.	.	.	.	.	.
*	*	*	*	*	*	*	*	*	*	*	*	*custos:c	*	*	*	*	*	*	*	*	*	*	*	*
!	!	!	!	!	!	!	!	!	!	!	!	!	!	!	!	!	!	!	!	!	!	!	!	!
1G/	-uit	.	1g\	-uit	.	1bny\	-uit	.	1dd\	-uit	.	1g\	-bis	.	.	1g\	-bis	.	1dd\	-bis	.	1gg\	-bis	.
=64-	=64-	=64-	=64-	=64-	=64-	=64-	=64-	=64-	=64-	=64-	=64-	=64-	=64-	=64-	=64-	=64-	=64-	=64-	=64-	=64-	=64-	=64-	=64-	=64-
!	!	!	!	!	!	!	!	!	!	!	!	!LO:LB:g=original	!	!	!	!	!	!	!	!	!	!	!	!
0c\	no-	.	0g\	no-	.	0cc\	no-	.	0eeny\	no-	.	1c\	do-	.	.	1g\	do-	.	1ccny\	do-	.	1ee\	do-	.
.	.	.	.	.	.	.	.	.	.	.	.	1c\	-na-	.	.	1g\	-na-	.	1cc\	-na-	.	1ee\	-na-	.
.	.	.	.	.	.	.	.	.	.	.	.	.	.	.	.	.	.	.	.	.	.	.	.	.
*	*	*	*	*	*	*custos:a	*	*	*	*	*	*	*	*	*	*	*	*	*	*	*	*	*	*
1c\	-bis	.	1g\	-bis	.	1cc\	-bis	.	1ee\	-bis	.	1c\	-uit	.	.	1g\	-uit	.	1cc\	-uit	.	1ee\	-uit	.
=65-	=65-	=65-	=65-	=65-	=65-	=65-	=65-	=65-	=65-	=65-	=65-	=65-	=65-	=65-	=65-	=65-	=65-	=65-	=65-	=65-	=65-	=65-	=65-	=65-
!	!	!	!	!	!	!LO:LB:g=original	!	!	!	!	!	!	!	!	!	!	!	!	!	!	!	!	!	!
1F/	do-	.	1fny\	do-	.	1a\	do-	.	1cc\	do-	.	0f\	no-	.	.	0a\	no-	.	0cc\	no-	.	0ffny\	no-	.
1F/	-na-	.	1c/	-na-	.	1a\	-na-	.	1cc\	-na-	.	.	.	.	.	.	.	.	.	.	.	.	.	.
.	.	.	.	.	.	.	.	.	.	.	.	.	.	.	.	.	.	.	.	.	.	.	.	.
*	*	*	*	*	*	*	*	*	*	*	*	*	*	*	*	*custos:f	*	*	*	*	*	*	*	*
1F/	-uit	.	1f\	-uit	.	1a\	-uit	.	1cc\	-uit	.	0.B-/	-bis	.	.	0.f\	-bis	.	0.b-\	-bis	.	0.ff\	-bis	.
=66-	=66-	=66-	=66-	=66-	=66-	=66-	=66-	=66-	=66-	=66-	=66-	=66-	=66-	=66-	=66-	=66-	=66-	=66-	=66-	=66-	=66-	=66-	=66-	=66-
0B-/	no-	.	0f\	no-	.	0b-y\	no-	.	0dd\	no-	.	.	.	.	.	.	.	.	.	.	.	.	.	.
!	!	!	!	!	!	!	!	!	!	!	!	!	!	!	!	!	!	!	!	!	!	!	!	!
.	.	.	.	.	.	.	.	.	.	.	.	.	.	.	.	.	.	.	.	.	.	.	.	.
*custos:B	*	*	*custos:f	*	*	*	*	*	*custos:dd	*	*	*	*	*	*	*	*	*	*	*	*	*	*	*
1B-/	-bis	.	1d/	-bis	.	1b-\	-bis	.	1dd\	-bis	.	1ryy	.	.	.	1ryy	.	.	1ryy	.	.	1ryy	.	.
=67-	=67-	=67-	=67-	=67-	=67-	=67-	=67-	=67-	=67-	=67-	=67-	=67-	=67-	=67-	=67-	=67-	=67-	=67-	=67-	=67-	=67-	=67-	=67-	=67-
*M2/1	*	*	*M2/1	*	*	*M2/1	*	*	*M2/1	*	*	*M2/1	*	*	*	*M2/1	*	*	*M2/1	*	*	*M2/1	*	*
*met(C|)	*	*	*met(C|)	*	*	*met(C|)	*	*	*met(C|)	*	*	*met(C|)	*	*	*	*met(C|)	*	*	*met(C|)	*	*	*met(C|)	*	*
!LO:LB:g=original	!	!	!LO:LB:g=original	!	!	!	!	!	!LO:LB:g=original	!	!	!	!	!	!	!LO:LB:g=original	!	!	!	!	!	!	!	!
2B-/	Vi-	.	2.f\	Vi-	.	2b-\	Vi-	.	2dd\	Vi-	.	2B-/	vi-	.	.	2f\	vi-	.	2b-\	vi-	.	2ff\	vi-	.
2f\	-tam	.	.	.	.	2a\	-tam	.	2cc\	-tam	.	2F/	-tam	.	.	2f\	-tam	.	2cc\	-tam	.	2ff\	-tam	.
.	.	.	4c/	-tam	.	.	.	.	.	.	.	.	.	.	.	.	.	.	.	.	.	.	.	.
8c/	Sem-	.	2.g\	Sem-	.	4g/	Sem-	.	2cc\	Sem-	.	2c/	Sem-	.	.	2g\	Sem-	.	2cc\	Sem-	.	4ee\	Sem-	.
8d\L	.	.	.	.	.	.	.	.	.	.	.	.	.	.	.	.	.	.	.	.	.	.	.	.
8eny\	.	.	.	.	.	4a\	.	.	.	.	.	.	.	.	.	.	.	.	.	.	.	4ff\	.	.
8f\J	.	.	.	.	.	.	.	.	.	.	.	.	.	.	.	.	.	.	.	.	.	.	.	.
2g\	-pi-	.	.	.	.	4b-\	.	.	2dd\	-pi-	.	8G/L	-pi-	.	.	2g\	-pi-	.	2b-\	-pi-	.	2.gg\	.	.
.	.	.	.	.	.	.	.	.	.	.	.	8A/	.	.	.	.	.	.	.	.	.	.	.	.
.	.	.	4d/	pi-	.	4cc\	pi-	.	.	.	.	8B-/	.	.	.	.	.	.	.	.	.	.	.	.
.	.	.	.	.	.	.	.	.	.	.	.	8c/J	.	.	.	.	.	.	.	.	.	.	.	.
=68-	=68-	=68-	=68-	=68-	=68-	=68-	=68-	=68-	=68-	=68-	=68-	=68-	=68-	=68-	=68-	=68-	=68-	=68-	=68-	=68-	=68-	=68-	=68-	=68-
1d\	-ter-	.	1d/	-ter-	.	1dd\	-ter-	.	1dd\	-ter-	.	1d\	-ter-	.	.	1a\	-ter-	.	1a\	-ter-	.	.	.	.
.	.	.	.	.	.	.	.	.	.	.	.	.	.	.	.	.	.	.	.	.	.	8ff\L	-pi-	.
.	.	.	.	.	.	.	.	.	.	.	.	.	.	.	.	.	.	.	.	.	.	8ee\J	.	.
!	!	!	!	!	!	!	!	!	!	!	!	!	!	!	!	!	!	!	!	!	!	!LO:TX:a:t=P:problem=# below	!	!
.	.	.	.	.	.	.	.	.	.	.	.	.	.	.	.	.	.	.	.	.	.	2ff#X\	-ter-	.
!	!	!	!	!	!	!	!	!	!	!	!	!	!	!	!	!	!	!	!LO:N:acc=#	!	!	!	!	!
!	!	!	!	!	!	!	!	!	!	!	!	!	!	!	!	!	!	!	!LO:TX:a:t=P:problem=# below	!	!	!	!	!
1g\	-nam	.	1d/	-nam	.	1dd\	-nam	.	1dd\	-nam	.	1G/	-nam	.	.	1g\	-nam	.	1bn\	-nam	.	1gg\	-nam	.
=69-	=69-	=69-	=69-	=69-	=69-	=69-	=69-	=69-	=69-	=69-	=69-	=69-	=69-	=69-	=69-	=69-	=69-	=69-	=69-	=69-	=69-	=69-	=69-	=69-
2r	.	.	2r	.	.	2r	.	.	2r	.	.	2r	.	.	.	2r	.	.	2r	.	.	2r	.	.
1c\	Vi-	.	1g\	Vi-	.	1g\	Vi-	.	1cc\	Vi-	.	4c/	vi-	.	.	1g\	vi-	.	1cc\	vi-	.	1ee-X\	vi-	.
.	.	.	.	.	.	.	.	.	.	.	.	4d\	.	.	.	.	.	.	.	.	.	.	.	.
!	!	!	!	!	!	!	!	!	!	!	!	!	!	!	!	!	!	!	!	!	!	!	!	!
.	.	.	.	.	.	.	.	.	.	.	.	4eny\	.	.	.	.	.	.	.	.	.	.	.	.
.	.	.	.	.	.	.	.	.	.	.	.	4f\	.	.	.	.	.	.	.	.	.	.	.	.
!	!	!	!	!	!	!	!	!	!	!	!	!	!	!	!	!	!	!	!LO:TX:a:t=P:problem=# below	!	!	!	!	!
!	!	!	!	!	!	!	!	!	!	!	!	!	!	!	!	!	!	!	!LO:N:acc=#	!	!	!	!	!
2G/	-tam	.	2g\	-tam	.	2g/	-tam	.	2dd\	-tam	.	2g\	-tam	.	.	2g\	-tam	.	2bn\	-tam	.	2dd\	-tam	.
=70-	=70-	=70-	=70-	=70-	=70-	=70-	=70-	=70-	=70-	=70-	=70-	=70-	=70-	=70-	=70-	=70-	=70-	=70-	=70-	=70-	=70-	=70-	=70-	=70-
8c/	Sem-	.	2.g\	Sem-	.	2g/	Sem-	.	2ee-X\	Sem-	.	2c/	Sem-	.	.	2g\	Sem-	.	2cc\	Sem-	.	2cc\	Sem-	.
8d\L	.	.	.	.	.	.	.	.	.	.	.	.	.	.	.	.	.	.	.	.	.	.	.	.
!	!	!	!	!	!	!	!	!	!	!	!	!	!	!	!	!	!	!	!	!	!	!	!	!
8e\	.	.	.	.	.	.	.	.	.	.	.	.	.	.	.	.	.	.	.	.	.	.	.	.
8f\J	.	.	.	.	.	.	.	.	.	.	.	.	.	.	.	.	.	.	.	.	.	.	.	.
2g\	-pi-	.	.	.	.	2b-\	-pi-	.	2dd\	-pi-	.	2G/	pi-	.	.	2g\	pi-	.	2b\	pi-	.	2dd\	pi-	.
.	.	.	4d/	-pi-	.	.	.	.	.	.	.	.	.	.	.	.	.	.	.	.	.	.	.	.
0c\	-ter-	.	2.e-X/	-ter-	.	0g\	-ter-	.	4cc\	-ter-	.	0c\	-ter-	.	.	0g\	-ter-	.	0cc\	-ter-	.	4ee-X\	-ter-	.
.	.	.	.	.	.	.	.	.	4dd\	.	.	.	.	.	.	.	.	.	.	.	.	4dd\	.	.
.	.	.	.	.	.	.	.	.	4ee-X\	.	.	.	.	.	.	.	.	.	.	.	.	4cc\	.	.
.	.	.	4f\	.	.	.	.	.	4dd\	.	.	.	.	.	.	.	.	.	.	.	.	4dd\	.	.
=71-	=71-	=71-	=71-	=71-	=71-	=71-	=71-	=71-	=71-	=71-	=71-	=71-	=71-	=71-	=71-	=71-	=71-	=71-	=71-	=71-	=71-	=71-	=71-	=71-
.	.	.	1g\	.	.	.	.	.	1cc\	.	.	.	.	.	.	.	.	.	.	.	.	1ee-X\	.	.
!	!	!	!	!	!	!	!	!	!	!	!	!	!	!	!	!	!	!	!LO:TX:a:t=P:problem=# below	!	!	!	!	!
!	!	!	!	!	!	!	!	!	!	!	!	!	!	!	!	!	!	!	!LO:N:acc=#	!	!	!	!	!
0g\;	-nam.	.	0g\;	-nam.	.	0g\;	-nam	.	0dd\;	-nam.	.	0G/;	-nam	.	.	0g\;	-nam	.	0bn\;	-nam	.	0dd\	-nam	.
=72-	=72-	=72-	=72-	=72-	=72-	=72-	=72-	=72-	=72-	=72-	=72-	=72-	=72-	=72-	=72-	=72-	=72-	=72-	=72-	=72-	=72-	=72-	=72-	=72-
.	.	.	.	.	.	.	.	.	.	.	.	.	.	.	.	.	.	.	.	.	.	.	.	.
==	==	==	==	==	==	==	==	==	==	==	==	==	==	==	==	==	==	==	==	==	==	==	==	==
*-	*-	*-	*-	*-	*-	*-	*-	*-	*-	*-	*-	*-	*-	*-	*-	*-	*-	*-	*-	*-	*-	*-	*-	*-
!!!system-decoration: [(s1,s2,s3,s4)][(s5,s6,s7,s8)]
!!!AIN: 8 empty
!!!ENC: Filip Voros
!!!END: 2021-10-13
!!!RDF**kern: < = below
!!!EED: Andrzej Borzym
!!!EST: 2021-10-19
